icons/svg/subway/subway_praha.svg

<?xml version="1.0" encoding="UTF-8" standalone="no"?>
<svg
   xmlns:dc="http://purl.org/dc/elements/1.1/"
   xmlns:cc="http://creativecommons.org/ns#"
   xmlns:rdf="http://www.w3.org/1999/02/22-rdf-syntax-ns#"
   xmlns:svg="http://www.w3.org/2000/svg"
   xmlns="http://www.w3.org/2000/svg"
   xmlns:sodipodi="http://sodipodi.sourceforge.net/DTD/sodipodi-0.dtd"
   xmlns:inkscape="http://www.inkscape.org/namespaces/inkscape"
   width="16"
   height="16"
   id="svg2"
   version="1.1"
   inkscape:version="0.91 r"
   sodipodi:docname="subway_praha.svg">
  <defs
     id="defs13" />
  <sodipodi:namedview
     pagecolor="#ffffff"
     bordercolor="#666666"
     borderopacity="1"
     objecttolerance="10"
     gridtolerance="10"
     guidetolerance="10"
     inkscape:pageopacity="0"
     inkscape:pageshadow="2"
     inkscape:window-width="1920"
     inkscape:window-height="1004"
     id="namedview11"
     showgrid="true"
     inkscape:zoom="45.254834"
     inkscape:cx="8.5662381"
     inkscape:cy="8.2422198"
     inkscape:window-x="1680"
     inkscape:window-y="0"
     inkscape:window-maximized="1"
     inkscape:current-layer="svg2"
     showguides="false">
    <sodipodi:guide
       position="0,0"
       orientation="0,580"
       id="guide2989" />
    <sodipodi:guide
       position="580,0"
       orientation="-580,0"
       id="guide2991" />
    <sodipodi:guide
       position="580,580"
       orientation="0,-580"
       id="guide2993" />
    <sodipodi:guide
       position="0,580"
       orientation="580,0"
       id="guide2995" />
    <sodipodi:guide
       position="0,0"
       orientation="0,580"
       id="guide2997" />
    <sodipodi:guide
       position="580,0"
       orientation="-580,0"
       id="guide2999" />
    <sodipodi:guide
       position="580,580"
       orientation="0,-580"
       id="guide3001" />
    <sodipodi:guide
       position="0,580"
       orientation="580,0"
       id="guide3003" />
    <inkscape:grid
       type="xygrid"
       id="grid3013"
       empspacing="5"
       visible="true"
       enabled="true"
       snapvisiblegridlinesonly="true" />
  </sodipodi:namedview>
  <metadata
     id="metadata2975">image/svg+xmlen<rdf:RDF>
  <cc:Work
     rdf:about="">
    <dc:format>image/svg+xml</dc:format>
    <dc:type
       rdf:resource="http://purl.org/dc/dcmitype/StillImage" />
    <dc:title />
  </cc:Work>
</rdf:RDF>
</metadata>
  <path
     sodipodi:type="inkscape:offset"
     inkscape:radius="0.5085761"
     inkscape:original="M 0.91015625 4.4394531 L 2.6132812 6.15625 L 4.8828125 6.1640625 L 4.890625 4.4550781 L 0.91015625 4.4394531 z M 5.2207031 4.4570312 L 5.2050781 8.4355469 L 6.3300781 8.4394531 L 6.3398438 5.9765625 L 7.9863281 7.6660156 L 9.6425781 5.9902344 L 9.6347656 8.4511719 L 10.763672 8.4570312 L 10.775391 4.4785156 L 9.5195312 4.4726562 L 7.9902344 6.0761719 L 6.4765625 4.4609375 L 5.2207031 4.4570312 z M 11.109375 4.4785156 L 11.099609 6.1894531 L 13.375 6.1972656 L 15.089844 4.4941406 L 11.109375 4.4785156 z M 2.9433594 6.4882812 L 4.8730469 8.4335938 L 4.8828125 6.4941406 L 2.9433594 6.4882812 z M 11.099609 6.5195312 L 11.089844 8.4609375 L 13.042969 6.5273438 L 13.042969 6.5253906 L 11.099609 6.5195312 z M 5.203125 8.765625 L 7.9726562 11.560547 L 10.763672 8.7871094 L 5.203125 8.765625 z "
     style="opacity:1;fill:#fefefe;fill-opacity:1"
     id="path4166"
     d="M 0.91210938,3.9316406 A 0.50862695,0.50862695 0 0 0 0.54882812,4.796875 L 2.2519531,6.5136719 a 0.50862695,0.50862695 0 0 0 0.2050781,0.1269531 0.50862695,0.50862695 0 0 0 0.125,0.2050781 L 4.5117188,8.7910156 A 0.50862695,0.50862695 0 0 0 4.71875,8.9179688 0.50862695,0.50862695 0 0 0 4.8417969,9.1230469 l 2.7695312,2.7949221 a 0.50862695,0.50862695 0 0 0 0.7207031,0.0039 L 11.123047,9.1484375 a 0.50862695,0.50862695 0 0 0 0.125,-0.203125 0.50862695,0.50862695 0 0 0 0.199219,-0.1230469 l 1.953125,-1.9335937 a 0.50862695,0.50862695 0 0 0 0.126953,-0.2070313 0.50862695,0.50862695 0 0 0 0.205078,-0.1230468 l 1.714844,-1.703125 A 0.50862695,0.50862695 0 0 0 15.091797,3.9863281 L 11.111328,3.9707031 A 0.50862695,0.50862695 0 0 0 10.941406,4 0.50862695,0.50862695 0 0 0 10.777344,3.9707031 l -1.2558596,-0.00586 a 0.50862695,0.50862695 0 0 0 -0.3691406,0.15625 L 7.9941406,5.3359375 6.8476562,4.1132812 A 0.50862695,0.50862695 0 0 0 6.4785156,3.953125 L 5.2226562,3.9492188 A 0.50862695,0.50862695 0 0 0 5.0585938,3.9765625 0.50862695,0.50862695 0 0 0 4.8925781,3.9472656 L 0.91210938,3.9316406 Z m 5.92968752,3.2890625 0.78125,0.8007813 a 0.50862695,0.50862695 0 0 0 0.7246093,0.00195 l 0.7832032,-0.7929687 -0.00391,1.0429687 -2.2890625,-0.00977 0.00391,-1.0429688 z" />
  <path
     inkscape:connector-curvature="0"
     style="fill:#d9261c"
     d="M 5.2032735,8.7656024 10.763074,8.7868533 7.9734321,11.560114 5.2032735,8.7656024 Z m 7.8402225,-2.2392418 -1.943893,-0.00751 -0.0089,1.9425646 1.952748,-1.9350374 z M 2.9427781,6.4873947 4.8822433,6.494924 4.8738259,8.4343886 2.9427738,6.4873962 Z m 12.1464539,-1.992867 -3.980774,-0.01533 -0.0089,1.7097493 2.275994,0.00885 1.713636,-1.7032756 z M 0.91076745,4.4398858 4.889771,4.4552021 4.8831289,6.1650356 2.6137773,6.1561797 0.91076745,4.4398858 Z m 7.08037665,1.6357043 1.5276613,-1.6023083 1.2575526,0.00437 -0.01329,3.9788704 -1.1291398,-0.00447 0.00885,-2.4624126 -1.6560733,1.6755562 -1.6472172,-1.6879547 -0.00885,2.4624122 -1.1255983,-0.00447 0.015498,-3.9787687 1.2562244,0.0051 1.5143769,1.6139805 z"
     id="path4" />
</svg>

<?xml version="1.0" encoding="UTF-8" standalone="no"?>
<svg
   xmlns:dc="http://purl.org/dc/elements/1.1/"
   xmlns:cc="http://creativecommons.org/ns#"
   xmlns:rdf="http://www.w3.org/1999/02/22-rdf-syntax-ns#"
   xmlns:svg="http://www.w3.org/2000/svg"
   xmlns="http://www.w3.org/2000/svg"
   xmlns:sodipodi="http://sodipodi.sourceforge.net/DTD/sodipodi-0.dtd"
   xmlns:inkscape="http://www.inkscape.org/namespaces/inkscape"
   width="16"
   height="16"
   id="svg2"
   version="1.1"
   inkscape:version="0.91 r"
   sodipodi:docname="subway_praha.svg">
  <defs
     id="defs13" />
  <sodipodi:namedview
     pagecolor="#ffffff"
     bordercolor="#666666"
     borderopacity="1"
     objecttolerance="10"
     gridtolerance="10"
     guidetolerance="10"
     inkscape:pageopacity="0"
     inkscape:pageshadow="2"
     inkscape:window-width="1920"
     inkscape:window-height="1004"
     id="namedview11"
     showgrid="true"
     inkscape:zoom="22.627417"
     inkscape:cx="8.2683732"
     inkscape:cy="10.19632"
     inkscape:window-x="1680"
     inkscape:window-y="0"
     inkscape:window-maximized="1"
     inkscape:current-layer="svg2"
     showguides="false">
    <sodipodi:guide
       position="0,0"
       orientation="0,580"
       id="guide2989" />
    <sodipodi:guide
       position="580,0"
       orientation="-580,0"
       id="guide2991" />
    <sodipodi:guide
       position="580,580"
       orientation="0,-580"
       id="guide2993" />
    <sodipodi:guide
       position="0,580"
       orientation="580,0"
       id="guide2995" />
    <sodipodi:guide
       position="0,0"
       orientation="0,580"
       id="guide2997" />
    <sodipodi:guide
       position="580,0"
       orientation="-580,0"
       id="guide2999" />
    <sodipodi:guide
       position="580,580"
       orientation="0,-580"
       id="guide3001" />
    <sodipodi:guide
       position="0,580"
       orientation="580,0"
       id="guide3003" />
    <inkscape:grid
       type="xygrid"
       id="grid3013"
       empspacing="5"
       visible="true"
       enabled="true"
       snapvisiblegridlinesonly="true" />
  </sodipodi:namedview>
  <metadata
     id="metadata2975">image/svg+xmlen<rdf:RDF>
  <cc:Work
     rdf:about="">
    <dc:format>image/svg+xml</dc:format>
    <dc:type
       rdf:resource="http://purl.org/dc/dcmitype/StillImage" />
    <dc:title />
  </cc:Work>
</rdf:RDF>
</metadata>
  <path
     style="opacity:1;fill:#fefefe;fill-opacity:1"
     d="M 0.91210938,3.9316406 C 0.46074454,3.9311015 0.23236761,4.4750315 0.54882812,4.796875 L 2.2519531,6.5136719 c 0.057192,0.058148 0.1275287,0.1016901 0.2050781,0.1269531 0.024698,0.077358 0.06756,0.1476773 0.125,0.2050781 l 1.9296876,1.9453125 c 0.057747,0.058414 0.1287822,0.1019733 0.2070312,0.1269532 0.024133,0.077168 0.066314,0.1474704 0.1230469,0.2050781 l 2.7695312,2.7949221 c 0.1977081,0.200643 0.5208351,0.202392 0.7207031,0.0039 L 11.123047,9.1484375 c 0.05718,-0.056844 0.100022,-0.1264664 0.125,-0.203125 0.07507,-0.024964 0.143286,-0.067096 0.199219,-0.1230469 l 1.953125,-1.9335937 c 0.05841,-0.057747 0.101973,-0.1287823 0.126953,-0.2070313 0.07717,-0.024133 0.14747,-0.066314 0.205078,-0.1230468 l 1.714844,-1.703125 c 0.320483,-0.3189329 0.09666,-0.866197 -0.355469,-0.8691407 L 11.111328,3.9707031 C 11.053433,3.9707267 10.995966,3.9806347 10.941406,4 10.888701,3.9812804 10.83327,3.9713819 10.777344,3.9707031 L 9.5214844,3.9648431 C 9.3822366,3.9641999 9.2488142,4.0206749 9.1523438,4.1210931 L 7.9941406,5.3359375 6.8476562,4.1132812 C 6.7518555,4.0114236 6.6183462,3.9534989 6.4785156,3.953125 l -1.2558594,-0.00391 c -0.055817,5.06e-5 -0.1112458,0.00929 -0.1640624,0.027344 -0.053324,-0.018932 -0.1094327,-0.028834 -0.1660157,-0.029297 z"
     id="path4166"
     inkscape:connector-curvature="0"
     sodipodi:nodetypes="cccccccccccccccccccccccccccccc" />
  <path
     inkscape:connector-curvature="0"
     style="fill:#d9261c"
     d="M 5.2032735,8.7656024 10.763074,8.7868533 7.9734321,11.560114 5.2032735,8.7656024 Z m 7.8402225,-2.2392418 -1.943893,-0.00751 -0.0089,1.9425646 1.952748,-1.9350374 z M 2.9427781,6.4873947 4.8822433,6.494924 4.8738259,8.4343886 2.9427738,6.4873962 Z m 12.1464539,-1.992867 -3.980774,-0.01533 -0.0089,1.7097493 2.275994,0.00885 1.713636,-1.7032756 z M 0.91076745,4.4398858 4.889771,4.4552021 4.8831289,6.1650356 2.6137773,6.1561797 0.91076745,4.4398858 Z m 7.08037665,1.6357043 1.5276613,-1.6023083 1.2575526,0.00437 -0.01329,3.9788704 -1.1291398,-0.00447 0.00885,-2.4624126 -1.6560733,1.6755562 -1.6472172,-1.6879547 -0.00885,2.4624122 -1.1255983,-0.00447 0.015498,-3.9787687 1.2562244,0.0051 1.5143769,1.6139805 z"
     id="path4" />
</svg>
